flaticon/pins-and-locations/placeholder-5.svg

<svg xmlns="http://www.w3.org/2000/svg" width="32" height="32" viewBox="0 0 24 24">
    <path d="M 15.398438 4.601562 C 15.371094 4.570312 15.339844 4.546875 15.308594 4.53125 C 14.445312 3.707031 13.28125 3.199219 12 3.199219 C 9.359375 3.199219 7.199219 5.359375 7.199219 8 C 7.199219 9.28125 7.707031 10.445312 8.53125 11.308594 C 8.546875 11.339844 8.570312 11.371094 8.601562 11.398438 C 8.632812 11.433594 8.664062 11.457031 8.699219 11.476562 C 9.5625 12.296875 10.722656 12.800781 12 12.800781 C 14.640625 12.800781 16.800781 10.640625 16.800781 8 C 16.800781 6.71875 16.292969 5.554688 15.46875 4.691406 C 15.453125 4.660156 15.429688 4.628906 15.398438 4.601562 Z M 12 4 C 12.957031 4 13.839844 4.339844 14.53125 4.910156 L 8.910156 10.53125 C 8.339844 9.839844 8 8.957031 8 8 C 8 5.800781 9.800781 4 12 4 Z M 12 12 C 11.042969 12 10.160156 11.660156 9.46875 11.089844 L 15.089844 5.46875 C 15.660156 6.160156 16 7.042969 16 8 C 16 10.199219 14.199219 12 12 12 Z M 12 12"/>
    <path d="M 12 0 C 7.601562 0 4 3.601562 4 8 C 4 10.160156 4.640625 11.480469 5.558594 13.28125 C 5.679688 13.558594 5.839844 13.839844 6 14.160156 C 8.238281 18.761719 11.640625 23.761719 11.679688 23.839844 C 11.761719 23.921875 11.878906 24 12 24 C 12.121094 24 12.238281 23.921875 12.320312 23.800781 C 12.359375 23.761719 15.761719 18.761719 18 14.160156 C 18.160156 13.839844 18.28125 13.558594 18.441406 13.28125 C 19.359375 11.480469 20 10.160156 20 8 C 20 3.601562 16.398438 0 12 0 Z M 17.71875 12.878906 C 17.601562 13.199219 17.441406 13.480469 17.28125 13.800781 C 15.480469 17.480469 12.921875 21.480469 12 22.839844 C 11.078125 21.480469 8.519531 17.519531 6.71875 13.800781 C 6.558594 13.519531 6.441406 13.199219 6.28125 12.921875 C 5.398438 11.160156 4.800781 9.960938 4.800781 8 C 4.800781 4.039062 8.039062 0.800781 12 0.800781 C 15.960938 0.800781 19.199219 4.039062 19.199219 8 C 19.199219 9.960938 18.601562 11.160156 17.71875 12.878906 Z M 17.71875 12.878906"/>
</svg>

<svg xmlns="http://www.w3.org/2000/svg" width="32" height="32" viewBox="0 0 24 24">
    <path d="M15.398 4.602a.297.297 0 0 0-.09-.07A4.777 4.777 0 0 0 12 3.198C9.36 3.2 7.2 5.36 7.2 8c0 1.281.507 2.445 1.331 3.309.016.03.04.062.07.09a.358.358 0 0 0 .098.078A4.776 4.776 0 0 0 12 12.8c2.64 0 4.8-2.16 4.8-4.801a4.777 4.777 0 0 0-1.331-3.309.297.297 0 0 0-.07-.09zM12 4c.957 0 1.84.34 2.531.91l-5.62 5.621A3.966 3.966 0 0 1 8 8c0-2.2 1.8-4 4-4zm0 8c-.957 0-1.84-.34-2.531-.91l5.62-5.621C15.66 6.16 16 7.043 16 8c0 2.2-1.8 4-4 4zm0 0"/>
    <path d="M12 0C7.602 0 4 3.602 4 8c0 2.16.64 3.48 1.559 5.281.12.278.28.559.441.88 2.238 4.6 5.64 9.6 5.68 9.679.082.082.199.16.32.16s.238-.078.32-.2c.04-.038 3.442-5.038 5.68-9.64.16-.32.281-.601.441-.879C19.36 11.481 20 10.161 20 8c0-4.398-3.602-8-8-8zm5.719 12.879c-.117.32-.278.601-.438.922-1.8 3.68-4.36 7.68-5.281 9.039-.922-1.36-3.48-5.32-5.281-9.04-.16-.28-.278-.6-.438-.878C5.398 11.16 4.801 9.96 4.801 8 4.8 4.04 8.039.8 12 .8c3.96 0 7.2 3.24 7.2 7.2 0 1.96-.598 3.16-1.481 4.879zm0 0"/>
</svg>
